img/plane-icon.svg

<svg width="24" height="24" viewBox="0 0 24 24" fill="none" xmlns="http://www.w3.org/2000/svg">
<g clip-path="url(#clip0_64_682)">
<path d="M0.101217 13.3599C0.0353453 13.394 -0.00402633 13.4637 0.000327263 13.5377C0.00468086 13.6115 0.0525704 13.6759 0.121849 13.702L6.77944 16.1951L23.4193 1.2666L0.101217 13.3599Z" fill="#5477BB"/>
<path d="M10.9114 17.1687L9.87677 22.7172L12.9143 18.1956L20.0445 21.1757C20.0966 21.1975 20.156 21.1946 20.2058 21.1681C20.2559 21.1409 20.2911 21.0932 20.3015 21.0375L24 1.52148L10.9114 17.1687Z" fill="#5477BB"/>
<path d="M7.18225 16.5902L9.30075 22.7338L10.3706 16.9932C10.3797 16.946 10.4005 16.9017 10.4315 16.8646L21.1217 4.08398L7.18225 16.5902Z" fill="#5477BB"/>
</g>
<defs>
<clipPath id="clip0_64_682">
<rect width="24" height="24" fill="white"/>
</clipPath>
</defs>
</svg>

<svg width="24" height="24" fill="none" xmlns="http://www.w3.org/2000/svg"><g clip-path="url(#clip0_64_682)" fill="#5477BB"><path d="M.101 13.36a.188.188 0 00.02.342l6.658 2.493L23.42 1.267.101 13.36zm10.81 3.809l-1.034 5.548 3.037-4.521 7.13 2.98a.189.189 0 00.258-.138L24 1.52 10.911 17.17z"/><path d="M7.182 16.59l2.119 6.144 1.07-5.74a.284.284 0 01.06-.13l10.69-12.78L7.183 16.59z"/></g><defs><clipPath id="clip0_64_682"><path fill="#fff" d="M0 0h24v24H0z"/></clipPath></defs></svg>
